X: 249
T: New Mown Meadow
M:4/4
R:reel
L:1/8
K:Edor
"Em"BEED E2FA|BdcA "D"BAFA|"Em"BEE2 "D"FDFA|A2BA FEFA|
"Em"BEED E2FA|BdcA "D"BAFA|"Bm"~d3B "A"~c2B|1 AcBA "D"FEFA:|2 "A" AcBA "D"FAcd||
"A"e2ce fece|e2cA "D"BAFA|"A"e2ce fecB|"D"AcBA "A"FAE2|
"A"e2ce fece|e2cA "D"BAFA|"Bm"~d3B "A"~c2B|1 AcBA "D"FAcd:|2 "A"AcBA "D"FEFA||


